src/assets/3-users/icn_Organizer_unselected@1.5x.svg

<?xml version="1.0" encoding="UTF-8"?>
<svg width="78px" height="76px" viewBox="0 0 78 76" version="1.1" xmlns="http://www.w3.org/2000/svg" xmlns:xlink="http://www.w3.org/1999/xlink">
    <!-- Generator: sketchtool 63.1 (101010) - https://sketch.com -->
    <title>DE9AEDC3-2E80-4FC5-B9D2-F5B8B7041195@1.5x</title>
    <desc>Created with sketchtool.</desc>
    <defs>
        <polygon id="path-1" points="0 0.523079986 77.6247279 0.523079986 77.6247279 36.899999 0 36.899999"></polygon>
    </defs>
    <g id="Design" stroke="none" stroke-width="1" fill="none" fill-rule="evenodd" opacity="0.200000003">
        <g id="01_Internapp_Landing" transform="translate(-677.000000, -497.000000)">
            <g id="Group-2" transform="translate(628.000000, 375.000000)">
                <g id="icn_Organizer_unselected" transform="translate(49.000000, 122.000000)">
                    <path d="M20.2359595,14.0308996 C25.9860593,14.0308996 30.6633592,18.7099995 30.6633592,24.4609993 C30.6633592,30.2119992 25.9851593,34.890199 20.2359595,34.890199 C14.4831596,34.890199 9.80495974,30.2110992 9.80495974,24.4609993 C9.80495974,18.7099995 14.4831596,14.0308996 20.2359595,14.0308996 M20.2359595,37.141099 C27.2262593,37.141099 32.9133591,31.4530991 32.9133591,24.4618993 C32.9133591,17.4706995 27.2262593,11.7817997 20.2359595,11.7817997 C13.2429596,11.7817997 7.5549598,17.4697995 7.5549598,24.4618993 C7.5549598,31.4539991 13.2429596,37.141099 20.2359595,37.141099" id="Fill-1" fill="#B2B2B2"></path>
                    <path d="M55.3245285,3.01777989 C65.6637283,3.01777989 74.075128,11.4291797 74.075128,21.7674794 C74.075128,32.1057791 65.6637283,40.5171789 55.3245285,40.5171789 C44.9871288,40.5171789 36.574829,32.1057791 36.574829,21.7674794 C36.574829,11.4282797 44.9862288,3.01777989 55.3245285,3.01777989 M55.3245285,42.7671788 C66.9039282,42.7671788 76.325128,33.3468791 76.325128,21.7674794 C76.325128,10.1880797 66.9039282,0.767779953 55.3245285,0.767779953 C43.7460288,0.767779953 34.3248291,10.1880797 34.3248291,21.7674794 C34.3248291,33.3468791 43.7451288,42.7671788 55.3245285,42.7671788" id="Fill-3" fill="#3D4172"></path>
                    <path d="M41.1318889,20.6420294 C41.3748889,17.5586295 42.5970889,14.7515296 44.4951888,12.5294296 L47.0511888,15.0854296 L48.6423887,13.4942296 L46.0863888,10.9382297 C48.3084887,9.04012973 51.1164886,7.81702977 54.1998886,7.57402977 L54.1998886,11.1920297 L56.4498885,11.1920297 L56.4498885,7.57402977 C59.5332884,7.81702977 62.3403883,9.03922973 64.5633883,10.9382297 L62.0073884,13.4942296 L63.5985883,15.0854296 L66.1545882,12.5294296 C68.0535882,14.7515296 69.2757882,17.5595295 69.5187882,20.6429294 L65.8998883,20.6429294 L65.8998883,22.8929294 L69.5187882,22.8929294 C69.2757882,25.9772293 68.0526882,28.7843292 66.1545882,31.0073292 L63.5985883,28.4513292 L62.0073884,30.0416292 L64.5633883,32.5976291 C62.3403883,34.4966291 59.5332884,35.718829 56.4498885,35.960929 L56.4498885,32.3429291 L54.1998886,32.3429291 L54.1998886,35.960929 C51.1155886,35.717929 48.3084887,34.4966291 46.0863888,32.5967291 L48.6423887,30.0407292 L47.0511888,28.4495292 L44.4951888,31.0064292 C42.5970889,28.7834292 41.3739889,25.9772293 41.1318889,22.8920294 L44.7498888,22.8920294 L44.7498888,20.6420294 L41.1318889,20.6420294 Z M55.3248885,38.266729 C64.4229883,38.266729 71.8254881,30.8651292 71.8254881,21.7670294 C71.8254881,12.6689296 64.4229883,5.26732983 55.3248885,5.26732983 C46.2276888,5.26732983 38.825189,12.6698296 38.825189,21.7670294 C38.825189,30.8642292 46.2267888,38.266729 55.3248885,38.266729 L55.3248885,38.266729 Z" id="Fill-5" fill="#3D4172"></path>
                    <polygon id="Fill-7" fill="#3D4172" points="61.4249984 20.6420294 56.4497985 20.6420294 56.4497985 14.3420296 54.1997986 14.3420296 54.1997986 22.8920294 61.4249984 22.8920294"></polygon>
                    <g id="Group-11" transform="translate(0.000000, 38.698099)">
                        <mask id="mask-2" fill="white">
                            <use xlink:href="#path-1"></use>
                        </mask>
                        <g id="Clip-10"></g>
                        <path d="M37.624229,34.6501791 L42.3798289,13.0690797 L74.574628,13.0690797 L69.7947282,34.6501791 L37.624229,34.6501791 Z M2.24972994,21.2059794 C2.24972994,15.0319796 5.31242986,9.56987975 9.98522974,6.22367984 L20.7411295,25.3684793 L30.5583292,5.68367985 C34.9215291,8.47187978 38.079629,13.0357797 38.897729,18.4177795 L35.3211291,34.6492791 L32.1279291,34.6492791 L32.1279291,23.8564794 L29.8779292,23.8564794 L29.8779292,34.6492791 L10.6179297,34.6492791 L10.6179297,23.8564794 L8.36792978,23.8564794 L8.36792978,34.6492791 L2.24972994,34.6492791 L2.24972994,21.2059794 Z M23.6805294,3.03407992 L22.2045294,6.08597984 L18.4272295,6.08597984 L16.9026296,3.16637992 C18.1221295,2.91077992 19.3866295,2.77307993 20.6826295,2.77307993 C21.7014294,2.77307993 22.7004294,2.86937992 23.6805294,3.03407992 L23.6805294,3.03407992 Z M25.3590293,11.0665797 L24.1215294,7.29107981 L25.9278293,3.55427991 C26.8467293,3.8296799 27.7395293,4.16987989 28.5954292,4.58027988 L25.3590293,11.0665797 Z M18.5766295,8.33507978 L22.0947294,8.33507978 L23.9298294,13.9312796 L20.6214295,20.5651795 L16.8711296,13.8898796 L18.5766295,8.33507978 Z M16.5345296,7.32257981 L15.3510296,11.1799797 L11.8851297,5.01047987 C12.7770297,4.52537988 13.7184296,4.12757989 14.6904296,3.7927799 L16.5345296,7.32257981 Z M72.1014281,34.6501791 L77.375428,10.8190797 L40.5708289,10.8190797 L39.9345289,13.7062796 C36.893429,5.94827984 29.3073292,0.523079986 20.6808295,0.523079986 C9.27692975,0.523079986 -0.000269999993,9.80207974 -0.000269999993,21.2059794 L-0.000269999993,36.900179 L77.6247279,36.900179 L77.6247279,34.6501791 L72.1014281,34.6501791 Z" id="Fill-9" fill="#B2B2B2" mask="url(#mask-2)"></path>
                    </g>
                    <polyline id="Stroke-18" stroke="#FFFFFF" stroke-width="2.69999993" points="35.941139 74.897808 41.7083389 50.4664086 76.325038 50.3431086 70.7675381 74.773608"></polyline>
                    <line x1="0.920249976" y1="74.080428" x2="77.6254479" y2="74.080428" id="Stroke-20" stroke="#B2B2B2" stroke-width="2.69999993"></line>
                </g>
            </g>
        </g>
    </g>
</svg>

<svg xmlns="http://www.w3.org/2000/svg" width="78.018" height="74.831" viewBox="0 0 78.018 74.831"><defs><style>.a{fill:rgba(178,178,178,0.25);}.a,.b,.c{fill-rule:evenodd;}.b{fill:rgba(61,65,114,0.2);}.c,.d{fill:none;stroke-width:2.7px;}.c{stroke:rgba(255,255,255,0.25);}.d{stroke:rgba(178,178,178,0.25);}</style></defs><g transform="translate(0 -0.768)"><g transform="translate(-677 -497)"><g transform="translate(628 375)"><g transform="translate(49 122)"><path class="a" d="M20.236,14.031A10.43,10.43,0,1,1,9.8,24.461a10.44,10.44,0,0,1,10.431-10.43m0,23.11A12.68,12.68,0,1,0,7.555,24.462,12.693,12.693,0,0,0,20.236,37.141"/><path class="b" d="M55.325,3.018a18.75,18.75,0,1,1-18.75,18.75,18.772,18.772,0,0,1,18.75-18.75m0,39.749a21,21,0,1,0-21-21,21.024,21.024,0,0,0,21,21"/><path class="b" d="M41.132,20.642A14.177,14.177,0,0,1,44.5,12.529l2.556,2.556,1.591-1.591-2.556-2.556A14.181,14.181,0,0,1,54.2,7.574v3.618h2.25V7.574a14.177,14.177,0,0,1,8.113,3.364l-2.556,2.556L63.6,15.085l2.556-2.556a14.175,14.175,0,0,1,3.364,8.114H65.9v2.25h3.619a14.183,14.183,0,0,1-3.364,8.114L63.6,28.451l-1.591,1.59L64.563,32.6a14.17,14.17,0,0,1-8.113,3.363V32.343H54.2v3.618A14.166,14.166,0,0,1,46.086,32.6l2.556-2.556-1.591-1.591L44.5,31.006a14.174,14.174,0,0,1-3.363-8.114H44.75v-2.25ZM55.325,38.267a16.5,16.5,0,1,0-16.5-16.5,16.519,16.519,0,0,0,16.5,16.5Z"/><path class="b" d="M61.425,20.642H56.45v-6.3H54.2v8.55h7.225Z"/><g transform="translate(0 38.698)"><path class="a" d="M37.624,34.65,42.38,13.069H74.575L69.795,34.65ZM2.25,21.206A18.409,18.409,0,0,1,9.985,6.224L20.741,25.368,30.558,5.684A18.427,18.427,0,0,1,38.9,18.418L35.321,34.649H32.128V23.857h-2.25V34.649H10.618V23.857H8.368V34.649H2.25ZM23.681,3.034,22.2,6.086H18.427L16.9,3.166a18.413,18.413,0,0,1,3.78-.393,18.059,18.059,0,0,1,3,.261Zm1.678,8.033L24.122,7.291l1.806-3.737A18.349,18.349,0,0,1,28.6,4.58ZM18.577,8.335h3.518l1.835,5.6-3.308,6.634-3.75-6.675ZM16.535,7.323,15.351,11.18,11.885,5.01A18.4,18.4,0,0,1,14.69,3.793ZM72.1,34.65l5.274-23.831h-36.8l-.636,2.887A20.669,20.669,0,0,0,0,21.206V36.9H77.625V34.65Z"/></g><path class="c" d="M35.941,74.9l5.767-24.431,34.617-.123-5.557,24.43"/><line class="d" x2="76.705" transform="translate(0.92 74.08)"/></g></g></g></g></svg>
